X:1
T: Shandy Hall
N:
C:
S:Play  4  times
A:
O:
R:
M:6/8
K:C
I:speed 150
%W: A1
% voice 1 (1 lines, 39 notes)
K:C
M:6/8
L:1/16
g2 |g6 g2 f2 e2 f2 e2 d2 e4 c2 g6 g2 a2 b2 c'2 b2 a2 g2 a2 b2 |c'6 g2 f2 e2 f2 e2 d2 e4 c2 f2 g2 f2 e4 c2 d2 e2 d2 c4 g2 |
%W: A2
% voice 1 (1 lines, 38 notes)
g6 g2 f2 e2 f2 e2 d2 e4 c2 g6 g2 a2 b2 c'2 b2 a2 g2 a2 b2 |c'6 g2 f2 e2 f2 e2 d2 e4 c2 f2 g2 f2 e4 c2 d2 e2 d2 c4 e2 |
%W: B1
% voice 1 (1 lines, 35 notes)
d4 G2 d2 e2 f2 e4 G2 c2 e2 g2 a4 f2 g2 f2 e2 d6 f4 e2 |d4 G2 d2 e2 f2 e4 G2 c2 e2 g2 a6 f6 d2 e2 d2 c4 e2 |
%W: B2
% voice 1 (1 lines, 34 notes)
d4 G2 d2 e2 f2 e4 G2 c2 e2 g2 a4 f2 g2 f2 e2 d6 f4 e2 |d4 G2 d2 e2 f2 e4 G2 c2 e2 g2 a6 f6 d2 e2 d2 c4 ||
